packages/kaspersky-hexa-ui-icons/src/iconsSVGs/16/Reload1.svg

<svg width="16" height="16" viewBox="0 0 16 16" fill="none" xmlns="http://www.w3.org/2000/svg">
<path d="M3.47377 4.60599C4.49511 3.23633 6.12735 2.35054 7.96561 2.35054C11.0581 2.35054 13.565 4.85749 13.565 7.94997C13.565 8.7517 13.3965 9.51407 13.093 10.2036L14.0658 11.1763C14.576 10.2135 14.865 9.11551 14.865 7.94997C14.865 4.13952 11.7761 1.05054 7.96561 1.05054C5.88958 1.05054 4.02845 1.96747 2.76408 3.41719V2.29081C2.76408 1.93182 2.47306 1.64081 2.11408 1.64081C1.75509 1.64081 1.46408 1.93182 1.46408 2.29081V5.25599C1.46408 5.61498 1.75509 5.90599 2.11408 5.90599H4.93732C5.29631 5.90599 5.58732 5.61498 5.58732 5.25599C5.58732 4.89701 5.29631 4.60599 4.93732 4.60599H3.47377Z" fill="black"/>
<path d="M10.3784 13.0044L11.3421 13.9681C10.344 14.5293 9.1922 14.8494 7.96561 14.8494C4.70418 14.8494 1.97273 12.5871 1.25205 9.54683C1.16925 9.19752 1.38529 8.84723 1.7346 8.76443C2.0839 8.68162 2.43419 8.89767 2.517 9.24697C3.10188 11.7143 5.32023 13.5494 7.96561 13.5494C8.82952 13.5494 9.64773 13.3538 10.3784 13.0044Z" fill="black"/>
<path fill-rule="evenodd" clip-rule="evenodd" d="M5.06174 8.55546C5.06174 6.64755 6.6084 5.10089 8.5163 5.10089C10.4242 5.10089 11.9709 6.64755 11.9709 8.55546C11.9709 9.23028 11.7774 9.85991 11.4428 10.3919L14.2575 13.2065C14.5114 13.4604 14.5114 13.8719 14.2575 14.1258C14.0037 14.3796 13.5921 14.3796 13.3383 14.1258L10.5562 11.3437C9.98456 11.7626 9.27932 12.01 8.5163 12.01C6.6084 12.01 5.06174 10.4634 5.06174 8.55546ZM8.5163 6.40089C7.32637 6.40089 6.36174 7.36552 6.36174 8.55546C6.36174 9.74539 7.32637 10.71 8.5163 10.71C9.70624 10.71 10.6709 9.74539 10.6709 8.55546C10.6709 7.36552 9.70624 6.40089 8.5163 6.40089Z" fill="black"/>
</svg>

<svg xmlns="http://www.w3.org/2000/svg" width="16" height="16" fill="none" viewBox="0 0 16 16"><path fill="#000" d="M3.474 4.606c1.021-1.37 2.653-2.255 4.492-2.255 3.093 0 5.599 2.507 5.599 5.6a5.58 5.58 0 0 1-.472 2.254l.973.973c.51-.963.799-2.061.799-3.226 0-3.81-3.089-6.899-6.899-6.899-2.076 0-3.937.917-5.201 2.367V2.291a.65.65 0 0 0-1.3 0v2.965c0 .359.291.65.65.65h2.823a.65.65 0 1 0 0-1.3zm6.904 8.398.964.964c-.998.561-2.15.881-3.376.881-3.261 0-5.993-2.262-6.713-5.303a.65.65 0 0 1 1.264-.299c.585 2.467 2.803 4.302 5.449 4.302.864 0 1.682-.196 2.413-.545"/><path fill="#000" fill-rule="evenodd" d="M5.0617 8.5555c0-1.908 1.5467-3.4546 3.4546-3.4546s3.4546 1.5466 3.4546 3.4546a3.44 3.44 0 0 1-.5281 1.8364l2.8147 2.8146a.65.65 0 1 1-.9192.9193l-2.7821-2.7821a3.44 3.44 0 0 1-2.0399.6663c-1.9079 0-3.4546-1.5466-3.4546-3.4545m3.4546-2.1546c-1.19 0-2.1546.9646-2.1546 2.1546S7.3264 10.71 8.5163 10.71c1.19 0 2.1546-.9646 2.1546-2.1545s-.9647-2.1546-2.1546-2.1546" clip-rule="evenodd"/></svg>
